Papirus-Dark/symbolic/status/network-vpn-symbolic.svg

<svg xmlns="http://www.w3.org/2000/svg" width="16" height="16" version="1.1">
 <path style="fill:#dfdfdf" d="M 8,-1.5e-7 A 3,3 0 0 0 5,2.9999998 v 2 H 4 c -0.554,0 -1,0.446 -1,0.9999999 V 9.9999999 C 3,10.554 3.446,11 4,11 h 8 c 0.554,0 1,-0.446 1,-1.0000001 V 5.9999997 C 13,5.4459998 12.554,4.9999998 12,4.9999998 h -1 v -2 A 3,3 0 0 0 8,-1.5e-7 Z M 8,1.9999998 c 0.575974,0 1,0.424026 1,1 v 2 H 7 v -2 c 0,-0.575974 0.424026,-1 1,-1 z M 7,12 v 2 H 1 c -0.554,0 -1,0.446 -1,1 0,0.554 0.446,1 1,1 h 14 c 0.554,0 1,-0.446 1,-1 0,-0.554 -0.446,-1 -1,-1 H 9 v -2 z"/>
</svg>

<svg xmlns="http://www.w3.org/2000/svg" width="16" height="16" version="1.1">
 <path style="fill:#dfdfdf" d="M 8 0 A 3 3 0 0 0 5 3 L 5 5 L 4 5 C 3.446 5 3 5.4460001 3 6 L 3 10 C 3 10.554 3.446 11 4 11 L 12 11 C 12.554 11 13 10.554 13 10 L 13 6 C 13 5.4460001 12.554 5 12 5 L 11 5 L 11 3 A 3 3 0 0 0 8 0 z M 8 2 C 8.575974 2 9 2.424026 9 3 L 9 5 L 7 5 L 7 3 C 7 2.424026 7.424026 2 8 2 z M 7 12 L 7 13 L 5 13 L 5 14 L 5 16 L 11 16 L 11 14 L 11 13 L 9 13 L 9 12 L 7 12 z M 1 14 C 0.446 14 0 14.446 0 15 C 0 15.554 0.446 16 1 16 L 4 16 L 4 14 L 1 14 z M 12 14 L 12 16 L 15 16 C 15.554 16 16 15.554 16 15 C 16 14.446 15.554 14 15 14 L 12 14 z"/>
</svg>
